src/svgs/point-line-poly.svg

<?xml version="1.0" encoding="UTF-8" standalone="no"?>
<!-- Created with Inkscape (http://www.inkscape.org/) -->

<svg
   xmlns:dc="http://purl.org/dc/elements/1.1/"
   xmlns:cc="http://creativecommons.org/ns#"
   xmlns:rdf="http://www.w3.org/1999/02/22-rdf-syntax-ns#"
   xmlns:svg="http://www.w3.org/2000/svg"
   xmlns="http://www.w3.org/2000/svg"
   xmlns:xlink="http://www.w3.org/1999/xlink"
   xmlns:sodipodi="http://sodipodi.sourceforge.net/DTD/sodipodi-0.dtd"
   xmlns:inkscape="http://www.inkscape.org/namespaces/inkscape"
   width="20"
   height="20"
   id="svg5738"
   version="1.1"
   inkscape:version="0.91 r13725"
   sodipodi:docname="point-line-poly.svg">
  <defs
     id="defs5740">
    <linearGradient
       inkscape:collect="always"
       xlink:href="#linearGradient4103"
       id="linearGradient4184"
       gradientUnits="userSpaceOnUse"
       x1="3003"
       y1="10"
       x2="3017"
       y2="10"
       gradientTransform="translate(1,2.6171874e-6)" />
    <linearGradient
       inkscape:collect="always"
       id="linearGradient4103">
      <stop
         style="stop-color:#000000;stop-opacity:1;"
         offset="0"
         id="stop4105" />
      <stop
         style="stop-color:#000000;stop-opacity:0;"
         offset="1"
         id="stop4107" />
    </linearGradient>
  </defs>
  <sodipodi:namedview
     id="base"
     pagecolor="#ffffff"
     bordercolor="#666666"
     borderopacity="1.0"
     inkscape:pageopacity="0.0"
     inkscape:pageshadow="2"
     inkscape:zoom="16"
     inkscape:cx="12.656511"
     inkscape:cy="14.253151"
     inkscape:document-units="px"
     inkscape:current-layer="layer1"
     showgrid="false"
     inkscape:window-width="1390"
     inkscape:window-height="884"
     inkscape:window-x="20"
     inkscape:window-y="20"
     inkscape:window-maximized="0"
     inkscape:snap-bbox="true"
     inkscape:bbox-paths="true"
     inkscape:bbox-nodes="true"
     inkscape:object-paths="true"
     inkscape:object-nodes="true"
     inkscape:snap-nodes="false">
    <inkscape:grid
       type="xygrid"
       id="grid5746"
       empspacing="5"
       visible="true"
       enabled="true"
       snapvisiblegridlinesonly="true" />
  </sodipodi:namedview>
  <metadata
     id="metadata5743">
    <rdf:RDF>
      <cc:Work
         rdf:about="">
        <dc:format>image/svg+xml</dc:format>
        <dc:type
           rdf:resource="http://purl.org/dc/dcmitype/StillImage" />
        <dc:title />
      </cc:Work>
    </rdf:RDF>
  </metadata>
  <g
     inkscape:label="Layer 1"
     inkscape:groupmode="layer"
     id="layer1"
     transform="translate(0,-1032.3622)">
    <path
       style="color:#000000;clip-rule:nonzero;display:inline;overflow:visible;visibility:visible;opacity:1;isolation:auto;mix-blend-mode:normal;color-interpolation:sRGB;color-interpolation-filters:linearRGB;solid-color:#000000;solid-opacity:1;fill:#000000;fill-opacity:1;fill-rule:nonzero;stroke:none;stroke-width:1;stroke-linecap:round;stroke-linejoin:round;stroke-miterlimit:4;stroke-dasharray:none;stroke-dashoffset:0;stroke-opacity:1;marker:none;color-rendering:auto;image-rendering:auto;shape-rendering:auto;text-rendering:auto;enable-background:accumulate"
       d="M 12.5 4 C 11.754877 4 11 4.6672125 11 5.4453125 C 11 6.2236125 12.153796 7.5554 12.5 8 C 12.846162 7.5554 14 6.2236125 14 5.4453125 C 14 4.6672125 13.24508 4 12.5 4 z M 7 5 C 6.7329894 5 6.4663161 5.1020433 6.2617188 5.3066406 C 5.9899032 5.5784561 5.9165575 5.9569505 6.0058594 6.3027344 L 4.3027344 8.0058594 C 3.9569504 7.9165575 3.5784562 7.9899033 3.3066406 8.2617188 C 2.8974459 8.6709134 2.8974459 9.3290866 3.3066406 9.7382812 C 3.5779657 10.009606 3.9554913 10.082631 4.3007812 9.9941406 L 6.0058594 11.699219 C 5.917369 12.044509 5.9903937 12.422034 6.2617188 12.693359 C 6.6709135 13.102554 7.3290865 13.102554 7.7382812 12.693359 C 8.0100968 12.421544 8.0834425 12.043049 7.9941406 11.697266 L 9.6972656 9.9941406 C 10.04305 10.083443 10.421544 10.010097 10.693359 9.7382812 C 11.102554 9.3290866 11.102554 8.6709134 10.693359 8.2617188 C 10.421544 7.9899033 10.04305 7.9165575 9.6972656 8.0058594 L 7.9941406 6.3027344 C 8.0834425 5.9569505 8.0100968 5.5784561 7.7382812 5.3066406 C 7.5336839 5.1020433 7.2670106 5 7 5 z M 6.9238281 7.0761719 C 6.9755825 7.0800322 7.0244175 7.0800322 7.0761719 7.0761719 L 8.9238281 8.9238281 C 8.9199678 8.9755825 8.9199678 9.0244175 8.9238281 9.0761719 L 7.0761719 10.923828 C 7.0244175 10.919968 6.9755825 10.919968 6.9238281 10.923828 L 5.0761719 9.0761719 C 5.0800322 9.0244175 5.0800322 8.9755825 5.0761719 8.9238281 L 6.9238281 7.0761719 z M 14.5 9 C 13.669 9 13 9.669 13 10.5 C 13 10.731784 13.057299 10.947002 13.150391 11.142578 L 11.142578 13.150391 C 10.947002 13.057299 10.731784 13 10.5 13 C 9.669 13 9 13.669 9 14.5 C 9 15.331 9.669 16 10.5 16 C 11.331 16 12 15.331 12 14.5 C 12 14.268408 11.944509 14.050922 11.851562 13.855469 L 13.857422 11.849609 C 14.052998 11.942701 14.268216 12 14.5 12 C 15.331 12 16 11.331 16 10.5 C 16 9.669 15.331 9 14.5 9 z "
       transform="translate(0,1032.3622)"
       id="rect4410" />
  </g>
</svg>

<?xml version="1.0" encoding="UTF-8" standalone="yes"?>
<svg viewBox="0 0 20 20">
  <g>
    <path d="M14,5.4C14,4.7,13.2,4,12.5,4C11.8,4,11,4.7,11,5.4c0,0.8,1.2,2.1,1.5,2.6C12.8,7.6,14,6.2,14,5.4z"/>
    <path d="M9.7,10c0.3,0.1,0.7,0,1-0.3c0.4-0.4,0.4-1.1,0-1.5C10.4,8,10,7.9,9.7,8L8,6.3c0.1-0.3,0-0.7-0.3-1C7.5,5.1,7.3,5,7,5
		S6.5,5.1,6.3,5.3C6,5.6,5.9,6,6,6.3L4.3,8C4,7.9,3.6,8,3.3,8.3c-0.4,0.4-0.4,1.1,0,1.5C3.6,10,4,10.1,4.3,10L6,11.7
		c-0.1,0.3,0,0.7,0.3,1c0.4,0.4,1.1,0.4,1.5,0C8,12.4,8.1,12,8,11.7L9.7,10z M7.1,10.9c-0.1,0-0.1,0-0.2,0L5.1,9.1
		c0-0.1,0-0.1,0-0.2l1.8-1.8c0.1,0,0.1,0,0.2,0l1.8,1.8c0,0.1,0,0.1,0,0.2L7.1,10.9z"/>
    <path d="M14.5,9C13.7,9,13,9.7,13,10.5c0,0.2,0.1,0.4,0.2,0.6l-2,2c-0.2-0.1-0.4-0.2-0.6-0.2C9.7,13,9,13.7,9,14.5S9.7,16,10.5,16
		s1.5-0.7,1.5-1.5c0-0.2-0.1-0.4-0.1-0.6l2-2c0.2,0.1,0.4,0.2,0.6,0.2c0.8,0,1.5-0.7,1.5-1.5S15.3,9,14.5,9z"/>
  </g>
</svg>
